src/components/Garden/Stake/assets/coin-dark.svg

<svg width="49" height="49" viewBox="0 0 49 49" fill="none" xmlns="http://www.w3.org/2000/svg">
<circle opacity="0.3" cx="24.25" cy="24.46" r="24" fill="#CBF3EF"/>
<path d="M16.8577 18.6399C18.6966 19.2669 21.1341 19.6122 23.7213 19.6122C26.3085 19.6122 28.746 19.2669 30.5848 18.6399C32.5446 17.9717 33.6239 17.0342 33.6239 16.0001C33.6239 14.966 32.5446 14.0285 30.5848 13.3602C28.746 12.7334 26.3085 12.3881 23.7213 12.3881C21.1341 12.3881 18.6966 12.7334 16.8577 13.3603C14.8979 14.0285 13.8186 14.966 13.8186 16.0001C13.8186 17.0343 14.8979 17.9717 16.8577 18.6399Z" fill="url(#paint0_linear_63_5377)"/>
<path opacity="0.7" fill-rule="evenodd" clip-rule="evenodd" d="M32.9479 20.0197C32.7926 20.0197 32.6244 20.0722 32.4334 20.1803C32.1515 20.3399 31.7955 20.4623 31.4186 20.5921L31.3093 20.6298C29.2516 21.3413 26.5566 21.7331 23.7208 21.7331C20.885 21.7331 18.19 21.3413 16.1323 20.6298C15.5504 20.4286 15.3886 20.3653 15.1736 20.2548C14.9551 20.1403 14.7516 20.0821 14.5688 20.0821C14.1727 20.0821 13.9295 20.3478 13.864 20.6112C13.8335 20.734 13.8181 20.8592 13.8181 20.9835C13.8181 22.0321 14.8974 22.9829 16.8572 23.6605C18.696 24.2962 21.1335 24.6464 23.7207 24.6464C26.308 24.6464 28.7455 24.2962 30.5843 23.6605C32.5441 22.9829 33.6234 22.0321 33.6234 20.9835C33.6234 20.8202 33.5969 20.6563 33.5437 20.494C33.4086 20.0814 33.1125 20.0197 32.9479 20.0197Z" fill="url(#paint1_linear_63_5377)"/>
<path d="M36.3399 29.7058V28.2453C36.3399 26.6316 34.9543 25.3237 33.2453 25.3237C31.536 25.3237 30.1506 26.6316 30.1506 28.2453V29.7058C29.581 29.7058 29.1191 30.1419 29.1191 30.6797V35.5492C29.1191 36.0871 29.581 36.5231 30.1506 36.5231H36.3399C36.9096 36.5231 37.3714 36.0871 37.3714 35.5492V30.6797C37.3714 30.1419 36.9096 29.7058 36.3399 29.7058ZM31.1822 28.2453C31.1822 27.1694 32.1059 26.2975 33.2453 26.2975C34.3847 26.2975 35.3084 27.1694 35.3084 28.2453V29.7058H31.1822V28.2453ZM36.3399 35.5492H30.1506V30.6799H36.3399V35.5492Z" fill="url(#paint2_linear_63_5377)"/>
<path fill-rule="evenodd" clip-rule="evenodd" d="M36.54 28.2453V29.5214C37.1175 29.6119 37.5714 30.0876 37.5714 30.6796V35.5492C37.5714 36.2082 37.0091 36.7231 36.34 36.7231H30.1507C29.4816 36.7231 28.9192 36.2083 28.9192 35.5492V30.6796C28.9192 30.0876 29.3732 29.6119 29.9507 29.5214V28.2453C29.9507 26.5104 31.4366 25.1237 33.2453 25.1237C35.0537 25.1237 36.54 26.5104 36.54 28.2453ZM33.2453 26.4975C32.2054 26.4975 31.3822 27.2906 31.3822 28.2453V29.5058H35.1085V28.2453C35.1085 27.2905 34.2853 26.4975 33.2453 26.4975ZM30.3507 35.3492H36.14V30.8799H30.3507V35.3492ZM36.34 29.7058C36.9096 29.7058 37.3714 30.1419 37.3714 30.6796V35.5492C37.3714 36.0871 36.9096 36.5231 36.34 36.5231H30.1507C29.5811 36.5231 29.1192 36.0871 29.1192 35.5492V30.6796C29.1192 30.1419 29.5811 29.7058 30.1507 29.7058V28.2453C30.1507 26.6315 31.5361 25.3237 33.2453 25.3237C34.9543 25.3237 36.34 26.6315 36.34 28.2453V29.7058ZM33.2453 26.2975C32.106 26.2975 31.1822 27.1694 31.1822 28.2453V29.7058H35.3085V28.2453C35.3085 27.1694 34.3847 26.2975 33.2453 26.2975ZM36.34 35.5492V30.6799H30.1507V35.5492H36.34Z" fill="url(#paint3_linear_63_5377)"/>
<path opacity="0.7" fill-rule="evenodd" clip-rule="evenodd" d="M26.9188 31.2279C25.8931 31.3409 24.8176 31.3995 23.7211 31.3995C20.8853 31.3995 18.1902 31.0076 16.1326 30.2961C15.5506 30.0949 15.3889 30.0317 15.1739 29.9212C14.9553 29.8066 14.7519 29.7484 14.569 29.7484C14.173 29.7484 13.9297 30.0141 13.8643 30.2775C13.8338 30.4003 13.8184 30.5255 13.8184 30.6498C13.8184 31.6985 14.8976 32.6492 16.8574 33.3268C18.6963 33.9626 21.1338 34.3127 23.721 34.3127C24.8259 34.3127 25.9035 34.2489 26.9188 34.1262V31.2279Z" fill="url(#paint4_linear_63_5377)"/>
<path opacity="0.7" fill-rule="evenodd" clip-rule="evenodd" d="M27.9325 26.1382C26.6118 26.3372 25.1852 26.4416 23.7211 26.4416C20.8853 26.4416 18.1902 26.0498 16.1326 25.3383C15.5506 25.1371 15.3889 25.0738 15.1739 24.9633C14.9553 24.8488 14.7519 24.7906 14.569 24.7906C14.173 24.7906 13.9297 25.0563 13.8643 25.3197C13.8338 25.4424 13.8184 25.5677 13.8184 25.692C13.8184 26.7406 14.8976 27.6914 16.8574 28.369C18.6963 29.0047 21.1338 29.3548 23.721 29.3548C25.202 29.3548 26.6339 29.2401 27.9325 29.0228V26.1382Z" fill="url(#paint5_linear_63_5377)"/>
<defs>
<linearGradient id="paint0_linear_63_5377" x1="24.7848" y1="-0.103094" x2="21.5824" y2="18.8249" gradientUnits="userSpaceOnUse">
<stop stop-color="#B0ECE6"/>
<stop offset="1" stop-color="#7CE0D6"/>
</linearGradient>
<linearGradient id="paint1_linear_63_5377" x1="24.7843" y1="12.0197" x2="23.4488" y2="24.3444" gradientUnits="userSpaceOnUse">
<stop stop-color="#B0ECE6"/>
<stop offset="1" stop-color="#7CE0D6"/>
</linearGradient>
<linearGradient id="paint2_linear_63_5377" x1="33.6884" y1="5.95866" x2="20.0802" y2="27.5764" gradientUnits="userSpaceOnUse">
<stop stop-color="#B0ECE6"/>
<stop offset="1" stop-color="#7CE0D6"/>
</linearGradient>
<linearGradient id="paint3_linear_63_5377" x1="33.6884" y1="5.95864" x2="20.0803" y2="27.5764" gradientUnits="userSpaceOnUse">
<stop stop-color="#B0ECE6"/>
<stop offset="1" stop-color="#7CE0D6"/>
</linearGradient>
<linearGradient id="paint4_linear_63_5377" x1="21.0721" y1="21.8562" x2="19.1347" y2="33.8446" gradientUnits="userSpaceOnUse">
<stop stop-color="#B0ECE6"/>
<stop offset="1" stop-color="#7CE0D6"/>
</linearGradient>
<linearGradient id="paint5_linear_63_5377" x1="21.6333" y1="16.8985" x2="19.8288" y2="28.9291" gradientUnits="userSpaceOnUse">
<stop stop-color="#B0ECE6"/>
<stop offset="1" stop-color="#7CE0D6"/>
</linearGradient>
</defs>
</svg>

<svg width="49" height="49" fill="none" xmlns="http://www.w3.org/2000/svg"><circle opacity=".3" cx="24.25" cy="24.46" r="24" fill="#CBF3EF"/><path d="M16.858 18.64c1.839.627 4.276.972 6.863.972 2.587 0 5.025-.345 6.864-.972 1.96-.668 3.039-1.606 3.039-2.64s-1.08-1.972-3.04-2.64c-1.838-.627-4.276-.972-6.863-.972-2.587 0-5.024.345-6.863.972-1.96.668-3.04 1.606-3.04 2.64s1.08 1.972 3.04 2.64z" fill="url(#a)"/><path opacity=".7" fill-rule="evenodd" clip-rule="evenodd" d="M32.948 20.02c-.155 0-.324.052-.515.16-.282.16-.637.282-1.014.412l-.11.038c-2.057.711-4.752 1.103-7.588 1.103-2.836 0-5.531-.392-7.589-1.103-.582-.201-.743-.265-.958-.375a1.326 1.326 0 0 0-.605-.173.705.705 0 0 0-.705.53c-.03.122-.046.247-.046.372 0 1.048 1.08 1.999 3.04 2.676 1.838.636 4.276.986 6.863.986 2.587 0 5.024-.35 6.863-.986 1.96-.677 3.04-1.628 3.04-2.677 0-.163-.027-.327-.08-.489-.135-.413-.431-.474-.596-.474z" fill="url(#b)"/><path d="M36.34 29.706v-1.46c0-1.614-1.386-2.922-3.095-2.922-1.709 0-3.094 1.308-3.094 2.921v1.46c-.57 0-1.032.437-1.032.975v4.87c0 .537.462.973 1.032.973h6.189c.57 0 1.031-.436 1.031-.974v-4.87c0-.537-.461-.973-1.031-.973zm-5.158-1.46c0-1.077.924-1.948 2.063-1.948 1.14 0 2.063.871 2.063 1.947v1.46h-4.126v-1.46zm5.158 7.303h-6.19v-4.87h6.19v4.87z" fill="url(#c)"/><path fill-rule="evenodd" clip-rule="evenodd" d="M36.54 28.245v1.276c.578.09 1.031.567 1.031 1.159v4.87c0 .658-.562 1.173-1.231 1.173h-6.19c-.668 0-1.23-.515-1.23-1.174v-4.87c0-.591.453-1.067 1.03-1.158v-1.276c0-1.735 1.487-3.121 3.295-3.121 1.809 0 3.295 1.386 3.295 3.121zm-3.295-1.748c-1.04 0-1.863.794-1.863 1.748v1.26h3.726v-1.26c0-.954-.823-1.748-1.863-1.748zm-2.894 8.852h5.789v-4.47h-5.79v4.47zm5.989-5.643c.57 0 1.031.436 1.031.974v4.87c0 .537-.461.973-1.031.973h-6.19c-.569 0-1.03-.436-1.03-.974v-4.87c0-.537.461-.973 1.03-.973v-1.46c0-1.614 1.386-2.922 3.095-2.922 1.71 0 3.095 1.307 3.095 2.921v1.46zm-3.095-3.409c-1.139 0-2.063.872-2.063 1.948v1.46h4.127v-1.46c0-1.076-.924-1.948-2.064-1.948zm3.095 9.252v-4.87h-6.19v4.87h6.19z" fill="url(#d)"/><path opacity=".7" fill-rule="evenodd" clip-rule="evenodd" d="M26.919 31.228a29.323 29.323 0 0 1-3.198.171c-2.836 0-5.53-.391-7.588-1.103-.582-.201-.744-.264-.96-.375a1.325 1.325 0 0 0-.604-.173.705.705 0 0 0-.705.53c-.03.122-.046.248-.046.372 0 1.049 1.08 2 3.04 2.677 1.838.636 4.276.986 6.863.986 1.105 0 2.183-.064 3.198-.187v-2.898z" fill="url(#e)"/><path opacity=".7" fill-rule="evenodd" clip-rule="evenodd" d="M27.933 26.138c-1.321.2-2.748.304-4.212.304-2.836 0-5.53-.392-7.588-1.104-.582-.2-.744-.264-.96-.375a1.326 1.326 0 0 0-.604-.172.705.705 0 0 0-.705.529c-.03.122-.046.248-.046.372 0 1.049 1.08 2 3.04 2.677 1.838.636 4.276.986 6.863.986 1.481 0 2.913-.115 4.212-.332v-2.885z" fill="url(#f)"/><defs><linearGradient id="a" x1="24.785" y1="-.103" x2="21.582" y2="18.825" gradientUnits="userSpaceOnUse"><stop stop-color="#B0ECE6"/><stop offset="1" stop-color="#7CE0D6"/></linearGradient><linearGradient id="b" x1="24.784" y1="12.02" x2="23.449" y2="24.344" gradientUnits="userSpaceOnUse"><stop stop-color="#B0ECE6"/><stop offset="1" stop-color="#7CE0D6"/></linearGradient><linearGradient id="c" x1="33.688" y1="5.959" x2="20.08" y2="27.576" gradientUnits="userSpaceOnUse"><stop stop-color="#B0ECE6"/><stop offset="1" stop-color="#7CE0D6"/></linearGradient><linearGradient id="d" x1="33.688" y1="5.959" x2="20.08" y2="27.576" gradientUnits="userSpaceOnUse"><stop stop-color="#B0ECE6"/><stop offset="1" stop-color="#7CE0D6"/></linearGradient><linearGradient id="e" x1="21.072" y1="21.856" x2="19.135" y2="33.845" gradientUnits="userSpaceOnUse"><stop stop-color="#B0ECE6"/><stop offset="1" stop-color="#7CE0D6"/></linearGradient><linearGradient id="f" x1="21.633" y1="16.898" x2="19.829" y2="28.929" gradientUnits="userSpaceOnUse"><stop stop-color="#B0ECE6"/><stop offset="1" stop-color="#7CE0D6"/></linearGradient></defs></svg>
